X: 37393
T: Sleepless Nights
R: waltz
M: 3/4
K: Gmajor
D2|:G2 D3 G|F2 B,3F|E6|EF/E/ ^DEF^G|A2 E3 A|G2 E3 G|(F6|
F) FG^GA^A|B2 ^G3 E|E2 e3 d|d3 ccB|c2 EFGA|
[1 BAGFED|^CEGBAG|GF FE ED|DE/D/ ^CDEF:|
[2 B2 ^CEGB|A2 CDFA|GA/G/FGB/^c/d|gd^cdef||
|:gd^cdB/c/d|GdB/^c/dcd|ecBc^GA|E3 Ace|de/d/ ^cded|
fedcBA|GFGA B/^c/d|ed^cdef|gd^cdB/c/d|GdB/^c/dcd|
ecBc^GA|E3 Ace|de/d/ ^cded|fedcBA|GA/G/FGB/^c/d|gd^cdef:|
|:(g4g)d|f3BBf|ecAEAB|ceaeab|c'bagfe|de/d/^cdef|
(3gbg (3fgf (3efe|(3ded ^cdef|gdBGBd|fdBFBd|ecBc^GA|
E3 Ace|dcAGFE|DE/D/^CD=CA,|G,B,DGBd|1 gd^cdef:|2 g3DEF||

